src/standard/mobile-devices.svg

<svg xmlns="http://www.w3.org/2000/svg" viewBox="0 0 36 36">
  <path d="M26 17.62a.62.62 0 1 0-.62-.62.61.61 0 0 0 .62.62Zm-12.53-8a.62.62 0 1 0-.62-.62.61.61 0 0 0 .62.62Z"/>
  <path d="M18 27.38H5.1V5.62h16.28V11a.62.62 0 1 0 1.24 0V5a.62.62 0 0 0-.62-.62H4.48a.62.62 0 0 0-.63.62v23a.62.62 0 0 0 .63.62H18a.62.62 0 0 0 0-1.24Z"/>
  <path d="M10.85 24a.62.62 0 0 0 .63.62h4a.62.62 0 0 0 0-1.24h-4a.62.62 0 0 0-.63.62ZM31 13.38H21a.62.62 0 0 0-.62.62v17a.62.62 0 0 0 .62.62h10a.62.62 0 0 0 .62-.62V14a.62.62 0 0 0-.62-.62Zm-.62 17h-8.76V14.62h8.76Z"/>
  <path d="M25 28.62h2a.62.62 0 0 0 0-1.24h-2a.62.62 0 0 0 0 1.24Z"/>
</svg>

<svg id="bad0fe9f-6fd0-4491-93a7-893fa05030cf" data-name="Icon" xmlns="http://www.w3.org/2000/svg" viewBox="0 0 36 36">
  <title>Mobile devices icon - Black</title>
<desc>cell, iphone, android, phone, BYOD, personal, ipad, tablet, media, consumer, technology, handheld, call, text, email, hardware</desc>
<metadata><?xpacket begin="﻿" id="W5M0MpCehiHzreSzNTczkc9d"?>
<x:xmpmeta xmlns:x="adobe:ns:meta/" x:xmptk="Adobe XMP Core 8.0-c001 1.000000, 0000/00/00-00:00:00        ">
   <rdf:RDF xmlns:rdf="http://www.w3.org/1999/02/22-rdf-syntax-ns#">
      <rdf:Description rdf:about=""
            xmlns:xmp="http://ns.adobe.com/xap/1.0/"
            xmlns:dc="http://purl.org/dc/elements/1.1/"
            xmlns:cq="http://www.day.com/jcr/cq/1.0"
            xmlns:tiff="http://ns.adobe.com/tiff/1.0/">
         <xmp:rhcc-effective-on>2023-12-08T17:34:20.449Z</xmp:rhcc-effective-on>
         <xmp:rhcc-metadata-complete-moderator>pending</xmp:rhcc-metadata-complete-moderator>
         <xmp:rhcc-translation-id>TRA570015af-37a2-4e55-8b0c-eda9d5179c85</xmp:rhcc-translation-id>
         <xmp:brand-content-type>Icon</xmp:brand-content-type>
         <xmp:CreateDate>2023-12-08T17:34:20.449Z</xmp:CreateDate>
         <xmp:rhcc-effective-on-set-on-upload>true</xmp:rhcc-effective-on-set-on-upload>
         <xmp:rhcc-metadata-complete-uploader>pending</xmp:rhcc-metadata-complete-uploader>
         <xmp:rhcc-file-last-modified>2023-12-08T17:34:31.791Z</xmp:rhcc-file-last-modified>
         <xmp:rhcc-audience>rhcc-audience:internal</xmp:rhcc-audience>
         <xmp:rhcc-rights-restricted>no</xmp:rhcc-rights-restricted>
         <xmp:brand-content-subtype>Icon</xmp:brand-content-subtype>
         <xmp:rhcc-derivative-id>DER570015af-37a2-4e55-8b0c-eda9d5179c85</xmp:rhcc-derivative-id>
         <xmp:brand-logo-color>Black</xmp:brand-logo-color>
         <xmp:rhcc-notify-portal-subscribers-on-change>yes</xmp:rhcc-notify-portal-subscribers-on-change>
         <dc:format>image/svg+xml</dc:format>
         <dc:modified>2024-02-09T20:12:04.232Z</dc:modified>
         <dc:title>
            <rdf:Alt>
               <rdf:li xml:lang="x-default">Mobile devices icon - Black</rdf:li>
            </rdf:Alt>
         </dc:title>
         <dc:description>
            <rdf:Alt>
               <rdf:li xml:lang="x-default">cell, iphone, android, phone, BYOD, personal, ipad, tablet, media, consumer, technology, handheld, call, text, email, hardware</rdf:li>
            </rdf:Alt>
         </dc:description>
         <cq:lastReplicationAction_scene7>Activate</cq:lastReplicationAction_scene7>
         <cq:lastReplicationAction_publish>Activate</cq:lastReplicationAction_publish>
         <cq:lastReplicated_publish>2024-02-09T21:47:32.985Z</cq:lastReplicated_publish>
         <cq:lastReplicatedBy>workflow-process-service</cq:lastReplicatedBy>
         <cq:lastReplicationAction>Activate</cq:lastReplicationAction>
         <cq:lastReplicatedBy_publish>workflow-process-service</cq:lastReplicatedBy_publish>
         <cq:isDelivered>true</cq:isDelivered>
         <cq:lastReplicated>2024-02-09T21:47:32.985Z</cq:lastReplicated>
         <cq:lastReplicatedBy_scene7>workflow-process-service</cq:lastReplicatedBy_scene7>
         <cq:lastReplicated_scene7>2024-02-09T21:47:32.985Z</cq:lastReplicated_scene7>
         <tiff:ImageLength>36</tiff:ImageLength>
         <tiff:ImageWidth>36</tiff:ImageWidth>
      </rdf:Description>
   </rdf:RDF>
</x:xmpmeta>
                                                                                                    
                                                                                                    
                                                                                                    
                                                                                                    
                                                                                                    
                                                                                                    
                                                                                                    
                                                                                                    
                                                                                                    
                                                                                                    
                                 
<?xpacket end="w"?></metadata>
<path d="M26,17.62a.62.62,0,1,0-.62-.62A.61.61,0,0,0,26,17.62Z"/>
  <path d="M13.47,9.62A.62.62,0,1,0,12.85,9,.61.61,0,0,0,13.47,9.62Z"/>
  <g>
    <path d="M18,27.38H5.1V5.62H21.38V11a.62.62,0,1,0,1.24,0V5A.62.62,0,0,0,22,4.38H4.48A.62.62,0,0,0,3.85,5V28a.62.62,0,0,0,.63.62H18a.62.62,0,0,0,0-1.24Z"/>
    <path d="M10.85,24a.62.62,0,0,0,.63.62h4a.62.62,0,0,0,0-1.24h-4A.62.62,0,0,0,10.85,24Z"/>
    <path d="M31,13.38H21a.62.62,0,0,0-.62.62V31a.62.62,0,0,0,.62.62H31a.62.62,0,0,0,.62-.62V14A.62.62,0,0,0,31,13.38Zm-.62,17H21.62V14.62h8.76Z"/>
    <path d="M25,28.62h2a.62.62,0,0,0,0-1.24H25a.62.62,0,0,0,0,1.24Z"/>
  </g>
</svg>
